X:246
T: ES WOLLT EIN JUNGMAGD FRUEH AUFSTEHN
N: E0122A
O: Europa, Mitteleuropa, Deutschland, Niederrhein, Lobberich
R: erzaehlendes Volks - Lied, Schalk -, Schelmen - Lied, Liebe
M: 4/4
L: 1/8
K: D
=C2 | =F2F2AGFG | A2AG=F2
A2 | _B2A2AG=FG | A2AG=F2
=C2 | =F3GA2FA | G=FE2D2
=C2 | =F3GA2FA | G=FE2D2

